X: 021986
T: Barking Seal (The) 
C: BB
L: 1/8
M: 6/8
R: jig
Q: 1/8=320
K: G
D |"G"DGB AGB | "Am7"AGB AGE | "G"DGB "D"ABd | "Em"edB "D"A3 |
"G"DGB AGB | "Am7"AGB AGE | "G"DEG DB,C | "D"DGF "G"G2 :|
d |"Em"edg edg | "C"edc "G"BAG | "Em"edg "C"edc | "G"BdB "D"A2d |
"Em"edg edg | "C"edc "G"BAG | "Am"ABc "D7"dcA |"D"AFA "G"G2 :|
